X:1
T:Venice (Campbell), 76.76 D
T:Venice (Campbell), 76.76 D
T:Arr from Johann Haydn by John P. Campbell, 1901
T:Public Domain Courtesy of the Cyber Hymnal™
C:Arr from Johann Haydn by John P. Campbell, 1901
Z:Public Domain
Z:Courtesy of the Cyber Hymnal™
%%score ( 1 2 ) ( 3 4 )
L:1/8
Q:1/4=115
M:4/4
K:E
V:1 treble 
V:2 treble 
V:3 bass 
V:4 bass 
V:1
 [B,E]2 | [CE]2 [B,G]2 [CG]2 [DF]2 | [DF]4 [CE]2 [C^E]2 | [CF]2 [CG]2 [CA]2 [Cc]2 | %4
 ([EG]4 [DF]2) [DB]2 | [EB]2 [Ee]2 [Fe]2 [Fd]2 | [Ec]4 [DB]2 [DA]2 | [EG]2 [EA]2 [EG]2 [DF]2 | %8
 E6 [^B,G]2 | [CG]2 [Cc]2 [D^B]2 [Fd]2 | [Fd]4 [Ec]2 [Ec]2 | [EB]2 (^AG) [CF]2 [CE]2 | %12
 [B,D]6 [DB]2 | [^Ec]2 [CE]2 [CF]2 [Cc]2 | ([DB]2 [B,D]2) [B,E]2 [EF]2 | [EG]2 [EA]2 [DG]2 [DF]2 | %16
 E6 |] %17
V:2
 x2 | x8 | x8 | x8 | x8 | x8 | x8 | x8 | E6 x2 | x8 | x8 | x2 E2 x4 | x8 | x8 | x8 | x8 | E6 |] %17
V:3
 [E,G,]2 | [C,G,]2 [G,,E,]2 [A,,E,]2 [B,,A,]2 | [C,G,]4 [C,G,]2 [B,,G,]2 | %3
 [A,,F,]2 [G,,^E,]2 [F,,F,]2 [A,,F,]2 | [B,,B,]6 [A,B,]2 | [G,B,]2 [G,B,]2 [G,,^B,]2 [G,,B,]2 | %6
 [A,,C]4 [B,,F,]2 [B,,F,]2 | [C,E,]2 [A,,C]2 [B,,B,]2 [B,,A,]2 | [E,G,]6 [D,F,]2 | %9
 [C,E,]2 [E,G,]2 G,2 [G,,G,]2 | [C,G,]4 [C,G,]2 [C,C]2 | [F,C]2 (CB,) [F,^A,]2 [^A,,F,]2 | %12
 [B,,F,]6 [B,,F,]2 | [B,,G,]2 [B,,G,]2 [A,,F,]2 [A,,F,]2 | [A,,F,]4 [G,,E,]2 [A,,C]2 | %15
 [B,,B,]2 [B,,F,]2 [B,,B,]2 [B,,A,]2 | [E,G,]6 |] %17
V:4
 x2 | x8 | x8 | x8 | x8 | x8 | x8 | x8 | x8 | x4 G,2 x2 | x8 | x2 F,2 x4 | x8 | x8 | x8 | x8 | %16
 x6 |] %17

